X:1
T:Title
%%score { ( 1 2 ) | ( 3 4 ) }
L:1/8
Q:1/4=100
M:4/4
K:Db
V:1 treble nm="Grand Piano"
V:2 treble 
V:3 bass 
V:4 bass 
V:1
 z4 D2 D2 | [F,B,D]3 [G,CE][K:treble] [A,DF]4 | z4 z2 [DF]2 | F4 E4 | z2 z F, B2 c2 | A3 E z2 _C2 | %6
 [=Ge]4 z4 | A4 =G2 _G2 | F4 GFED | [F,A,D]3 [E,A,C] [G,CE]4 | [CEG]4 [Ac][GB][FA]E | G4 F4 | %12
 z4 .c2 z2 | z4 z2 .[Ac]2 | z4 z2 .G2 | D8 |] %16
V:2
 D4 z C z A, | x4[K:treble] x4 | [A,EG]4 [A,EF]2 A,B, | x8 | E4 z4 | z4 E4 | z2 z F, d2 [=GB]2 | %7
 x8 | x8 | x8 | x8 | x8 | [Ff]4 F-[Fe]d=A | [Ac]2 B2 GED-[DB] | [DFA]3 [DF] [G,CE][_CA]=C-[CE] | %15
 x8 |] %16
V:3
 [D,F,]4 [D,F,]2 .[D,F,B,]2 | B,,3 A,, D,4 | C,4 D,E,F,=G, | [A,D]4 [A,C]4 | %4
 [=G,B,D]4 [E,G,D]2 [G,DE]2 | z4 C2 z2 | [E,B,]4 [=G,B,E]2 [E,D]2 | [A,C]4 E2- [CE]2 | %8
 z4 .B,2 .G,2 | A,,3 A,, A,,4 | z2 z B, A,E,F,[G,C] | [D,B,D]4 [D,A,D]4 | [D,A,]4 [D,A,]2 [F,DF]2 | %13
 z2 G2 .[G,B,E]2 z G | z2 z A, z =D,E,G, | [D,F,]8 |] %16
V:4
 x8 | x8 | x8 | x8 | x8 | [A,CE]3 [A,B,D] A,4 | x8 | z4 [B,D]2 z2 | %8
 [D,A,D]4 [D,D]-[D,A,D][D,A,]-[D,F,A,] | x8 | A,,4 A,,2 A,,2 | x8 | x8 | [G,D]4 z2 G,,2 | %14
 A,,4 A,,2 A,,2 | x8 |] %16

